svgs/solid/rocket-launch.svg

<svg xmlns="http://www.w3.org/2000/svg" viewBox="0 0 512 512"><!--! Font Awesome Pro 6.1.2 by @fontawesome - https://fontawesome.com License - https://fontawesome.com/license (Commercial License) Copyright 2022 Fonticons, Inc. --><path d="M117.8 127.1H207C286.9-3.743 409.5-8.542 483.9 5.255C495.6 7.41 504.6 16.45 506.7 28.07C520.5 102.5 515.7 225.1 384 304.1V394.2C384 419.7 370.6 443.2 348.7 456.2L260.2 508.6C252.8 513 243.6 513.1 236.1 508.9C228.6 504.6 224 496.6 224 488V373.3C224 350.6 215 328.1 199 312.1C183 296.1 161.4 288 138.7 288H24C15.38 288 7.414 283.4 3.146 275.9C-1.123 268.4-1.042 259.2 3.357 251.8L55.83 163.3C68.79 141.4 92.33 127.1 117.8 127.1H117.8zM384 88C361.9 88 344 105.9 344 128C344 150.1 361.9 168 384 168C406.1 168 424 150.1 424 128C424 105.9 406.1 88 384 88zM166.5 470C117 519.5 .4762 511.5 .4762 511.5C.4762 511.5-7.516 394.1 41.98 345.5C76.37 311.1 132.1 311.1 166.5 345.5C200.9 379.9 200.9 435.6 166.5 470zM119.8 392.2C108.3 380.8 89.81 380.8 78.38 392.2C61.92 408.7 64.58 447.4 64.58 447.4C64.58 447.4 103.3 450.1 119.8 433.6C131.2 422.2 131.2 403.7 119.8 392.2z"/></svg>

<svg xmlns="http://www.w3.org/2000/svg" viewBox="0 0 512 512"><!--! Font Awesome Pro 6.2.0 by @fontawesome - https://fontawesome.com License - https://fontawesome.com/license (Commercial License) Copyright 2022 Fonticons, Inc. --><path d="M117.8 128H207C286.9-3.7 409.5-8.5 483.9 5.3c11.6 2.2 20.7 11.2 22.8 22.8c13.8 74.4 9 197-122.7 276.9v89.3c0 25.4-13.4 49-35.3 61.9l-88.5 52.5c-7.4 4.4-16.6 4.5-24.1 .2s-12.1-12.2-12.1-20.9l0-114.7c0-22.6-9-44.3-25-60.3s-37.7-25-60.3-25H24c-8.6 0-16.6-4.6-20.9-12.1s-4.2-16.7 .2-24.1l52.5-88.5c13-21.9 36.5-35.3 61.9-35.3zM424 128c0-22.1-17.9-40-40-40s-40 17.9-40 40s17.9 40 40 40s40-17.9 40-40zM166.5 470C117 519.5 .5 511.5 .5 511.5s-8-116.5 41.5-166c34.4-34.4 90.1-34.4 124.5 0s34.4 90.1 0 124.5zm-46.7-36.4c11.4-11.4 11.4-30 0-41.4s-30-11.4-41.4 0c-16.5 16.5-13.8 55.2-13.8 55.2s38.7 2.7 55.2-13.8z"/></svg>
